!!!COM: Bach, Johann Sebastian
!!!OPR: Joh. Seb. Bachs vierstimmige Choralges‰nge
!!!XEN: Four-part Chorales
!!!OTL: 35. Das alte Jahr vergangen ist
!!!SCT: BWV 288
!!!SCA: Thematisch-systematisches Verzeichnis der musikalischen Werke Johann Sebastian Bach: Bach-Werke-Verzeichnis (Schmieder)
!!!YOR: Bach Gesellschaft Edition xxxix
!!!ENC: Steven Rasmussen
!!!CDT: 1685/3//-1750/7/28/
!!!OCY: Deutschland
!!!YEC: Copyright (c) 1994, 2000 Center for Computer Assisted Research in the Humanities
!!!YEM: Rights to all derivative editions reserved
!!!YEN: United States of America
**kern	**silbe	**kern	**silbe	**kern	**silbe	**kern	**silbe
*I:[SOPRANO]	*I:[SOPRANO]	*I:[ALTO]	*I:[ALTO]	*I:[TENORE]	*I:[TENORE]	*I:[BASSO]	*I:[BASSO]
*clefG2	*	*clefG2	*	*clefGv2	*	*clefF4	*
*k[]	*	*k[]	*	*k[]	*	*k[]	*
*a:	*	*a:	*	*a:	*	*a:	*
*M4/4	*	*M4/4	*	*M4/4	*	*M4/4	*
4a	Das	4e	.	4c#	.	8AL	.
.	.	.	.	.	.	8GJ	.
=1	=1	=1	=1	=1	=1	=1	=1
4a	al-	4f	.	8dL	.	8FL	.
.	.	.	.	8cJ	.	8DJ	.
8gL	-te	8eL	.	8B-L	.	4G	.
8fJ	.	8dJ	.	8GJ	.	.	.
4e	Jahr	4c#	.	4A	.	8GL	.
.	.	.	.	.	.	8EJ	.
4a	ver-	4d	.	8AL	.	8FL	.
.	.	.	.	8FJ	.	8DJ	.
=2	=2	=2	=2	=2	=2	=2	=2
4g	-gan-	8dL	.	8DL	.	8BB-L	.
.	.	8eJ	.	8B-J	.	8GGJ	.
4e	-gen	8dL	.	4A	.	4AA	.
.	.	8c#J	.	.	.	.	.
4f;	ist,	4d;	.	4A;	.	4D;	.
4a	wir	4d	.	4F	.	8DL	.
.	.	.	.	.	.	8CJ	.
=3	=3	=3	=3	=3	=3	=3	=3
4a	dan-	[2d	dan-	8FL	dan-	4BB-	.
.	.	.	.	8DJ	.	.	.
8gL	-ken	.	.	4G	-ken	4BBn	.
8fJ	.	.	.	.	.	.	.
4e	dir,	8d]	.	8GL	dir,	[2C	dir,
.	.	8c	-ken	8EJ	.	.	.
4a	Herr	8c	dir,	8FL	Herr	.	.
.	.	8f	Herr	8AJ	.	.	.
=4	=4	=4	=4	=4	=4	=4	=4
4g	Je-	8fL	Je-	8cL	.	8C]	.
.	.	16eL	.	8B-J	.	8E	Herr
.	.	16dJJ	.	.	.	.	.
4e	-su	8eL	-su	8B-L	.	8C#	Je-
.	.	8c#J	.	8AJ	.	8AA	-su
4f;	Christ,	4d;	.	4A;	.	4D;	.
4a	dass	4f	.	4d	.	4d	.
=5	=5	=5	=5	=5	=5	=5	=5
4b	du	8fL	.	4d	.	4G#	.
.	.	8eJ	.	.	.	.	.
4cc#	uns	8eL	.	4A	.	4Gn	.
.	.	8dJ	.	.	.	.	.
4dd	in	4d	.	8AL	.	4F#	.
.	.	.	.	8G#J	.	.	.
8aL	so	8cL	.	4A	.	4Fn	.
8bJ	.	8dJ	.	.	.	.	.
=6	=6	=6	=6	=6	=6	=6	=6
4cc	gro-	4.e	.	4A	.	8EL	.
.	.	.	.	.	.	8DJ	.
4b	-sser	.	.	4G#	.	4E	.
.	.	8d	.	.	.	.	.
4a;	G'fahr	4c#;	.	4E;	.	4AA;	.
4b	be-	4d	.	4F	.	4D	.
=7	=7	=7	=7	=7	=7	=7	=7
4cc	-h√º-	4e	.	8GL	.	4C	.
.	.	.	.	8EJ	.	.	.
4b	-tet	4d	.	8FL	.	8DL	.
.	.	.	.	8GJ	.	8EJ	.
4a	hast	8cL	.	8AL	.	4F	.
.	.	8dJ	.	8B-J	.	.	.
4a	lang'	4e-	.	4c	.	4F#	.
=8	=8	=8	=8	=8	=8	=8	=8
8gL	Zeit	4d	.	8B-L	.	4G	.
8fJ	.	.	.	8AJ	.	.	.
4e	und	4e	.	8B-L	.	4C#	.
.	.	.	.	8AJ	.	.	.
4f;	Jahr;	4d;	.	4A;	.	4D;	.
4g	dass	8dL	.	4G	.	4BB	.
.	.	16eL	.	.	.	.	.
.	.	16fJJ	.	.	.	.	.
=9	=9	=9	=9	=9	=9	=9	=9
4g	du	4e	.	8cL	.	4.C	.
.	.	.	.	8EJ	.	.	.
4a	uns	8dL	.	8F#L	.	.	.
.	.	8cJ	.	16GL	.	8AA	.
.	.	.	.	16AJJ	.	.	.
8gL	in	4d	.	4D	.	4BB	.
8fJ	.	.	.	.	.	.	.
4e	so	4e	.	4A	.	4C#	.
=10	=10	=10	=10	=10	=10	=10	=10
4f	gro-	8eL	.	4A	.	8DL	.
.	.	8c#J	.	.	.	8EJ	.
4f	-sser	4d	.	4A	.	8FL	.
.	.	.	.	.	.	8GJ	.
4e;	G'fahr	4c#;	.	4A;	.	4A;	.
4b	be-	4f#	.	4A	.	4D#	.
=11	=11	=11	=11	=11	=11	=11	=11
4cc	-h√º-	8eL	.	8G#L	.	4.E	.
.	.	8f#J	.	8AJ	.	.	.
4b	-tet	8g#L	.	4B	.	.	.
.	.	16aL	.	.	.	8D	.
.	.	16bJJ	.	.	.	.	.
4a	hast	4.e	.	8cL	.	8CL	.
.	.	.	.	8dJ	.	8BBJ	.
4e	lang'	.	.	8cL	.	8AAL	.
.	.	8e	.	8BJ	.	8GGJ	.
=12	=12	=12	=12	=12	=12	=12	=12
4a	Zeit	4e	.	8cL	.	4FF#	.
.	.	.	.	8AJ	.	.	.
4a	und	4d#	.	8F#L	.	4BB	.
.	.	.	.	8BJ	.	.	.
4g#;	Jahr.	4e;	.	4B;	.	4E;	.
==|!	==|!	==|!	==|!	==|!	==|!	==|!	==|!
*-	*-	*-	*-	*-	*-	*-	*-
!!!RWG: Key is interpreted using the Humdrum key tool.
!!!END: 1994/05/16
!!!EMD: Converted from MuseData to Humdrum Dec 19, 2000, by Andreas Kornstaedt using muse2kern.
!!!EED: Craig Stuart Sapp
!!!EEV: 2024/03/31
!!!ONB: Some non-unicode characters
